X:1
T:Possum Up a Gum Stump [1]
L:1/8
M:2/4
Z:Transcribed by Andrew Kuntz
F:http://www.ibiblio.org/fiddlers/PORT_POY.htm
K:A
(E |\
E/)F/A/B/ c/d/c/B/ | A/B/c/e/ fe |\
f/e/f/g/ a/g/a/f/ | e/c/A/c/ B/A/F/D/ | 
E/F/A/B/ c/d/c/B/ | A/B/c/e/ fe |\
f/e/f/g/ a/g/a/f/ | e/d/c/B/ A :| 
|: c/c/ |\
c/ec/ ee/d/ | c/B/A/c/ B/A/F/E/ |\
c/ee/ fe | c/B/A/c/ BB/B/ |
c/ec/ ee/d/ | c/B/A/c/ B/A/F/E/ |\
F/E/F/G/ A/G/A/F/ | E/D/C/B,/ A, :|
